X: 1
T: The Irish
R: mazurka
M: 3/4
L: 1/8
K: Gmaj
DG|B2 BA GB|d2 dB AB|c2 ce dc|(3Bcd g2 DG|
B2 BA GB|d2 dB AB|c2 cA FA|1 G4:|2 G3 ggf||
|:e2 ce ce|d2 dB AB|c2 cA FA|B2 B ggf|
e2 ce ce|d2 dB AB|c2 cA FA|1 G3 ggf:|2 G4||


Tune 1276	Setting 14588

